X:33
T:The White Petticoat
A:trad, from Solas
M:6/8
K:Em
Bed cBA | GFE B,EG | FBB cBB | eBB cBA | \
Bed cBA | GFE B,EG | FBB cBA | GED E3 ::  \
gec Ace | gaf gec | cBA EAc | Be^d eBG | \
FBB GBB | FBA GFE | B,EG cBA | GED E3 :|
